assets/trademark/google-tag-manager.svg

<?xml version="1.0" encoding="UTF-8"?>


<svg xmlns:xlink="http://www.w3.org/1999/xlink" width="256px" height="256px" viewBox="0 0 256 256" version="1.1"
     xmlns="http://www.w3.org/2000/svg" preserveAspectRatio="xMidYMid">
    <defs>
        <path d="M250.874183,115.639875 L140.360125,5.12581653 C133.525703,-1.70860551 122.474297,-1.70860551 115.639875,5.12581653 L5.12581653,115.639875 C-1.70860551,122.474297 -1.70860551,133.525703 5.12581653,140.360125 L115.639875,250.874183 C122.474297,257.708606 133.525703,257.708606 140.360125,250.874183 L250.874183,140.360125 C257.708606,133.525703 257.708606,122.474297 250.874183,115.639875 Z M128,157.082647 L98.917353,128 L128,98.917353 L157.082647,128 L128,157.082647 Z"
              id="path-1"></path>
        <path d="M250.579492,115.781385 L140.415465,5.61735822 C133.60269,-1.19541715 122.586287,-1.19541715 115.773511,5.61735822 L5.60948421,115.781385 C-1.20329116,122.594161 -1.20329116,133.610564 5.60948421,140.423339 L115.773511,250.587366 C122.586287,257.400142 133.60269,257.400142 140.415465,250.587366 L250.579492,140.423339 C257.392268,133.610564 257.392268,122.594161 250.579492,115.781385 Z M128.094488,157.092896 L99.1039547,128.102362 L128.094488,99.1118287 L157.085022,128.102362 L128.094488,157.092896 Z"
              id="path-3"></path>
        <path d="M250.579492,115.781385 L140.415465,5.61735822 C133.60269,-1.19541715 122.586287,-1.19541715 115.773511,5.61735822 L5.60948421,115.781385 C-1.20329116,122.594161 -1.20329116,133.610564 5.60948421,140.423339 L115.773511,250.587366 C122.586287,257.400142 133.60269,257.400142 140.415465,250.587366 L250.579492,140.423339 C257.392268,133.610564 257.392268,122.594161 250.579492,115.781385 Z M128.094488,157.092896 L99.1039547,128.102362 L128.094488,99.1118287 L157.085022,128.102362 L128.094488,157.092896 Z"
              id="path-5"></path>
        <path d="M250.579492,115.781385 L140.415465,5.61735822 C133.60269,-1.19541715 122.586287,-1.19541715 115.773511,5.61735822 L5.60948421,115.781385 C-1.20329116,122.594161 -1.20329116,133.610564 5.60948421,140.423339 L115.773511,250.587366 C122.586287,257.400142 133.60269,257.400142 140.415465,250.587366 L250.579492,140.423339 C257.392268,133.610564 257.392268,122.594161 250.579492,115.781385 Z M128.094488,157.092896 L99.1039547,128.102362 L128.094488,99.1118287 L157.085022,128.102362 L128.094488,157.092896 Z"
              id="path-7"></path>
        <linearGradient x1="24.6912329%" y1="26.4246968%" x2="74.7335616%" y2="80.1268651%" id="linearGradient-9">
            <stop stop-color="#1A237E" stop-opacity="0.2" offset="0%"></stop>
            <stop stop-color="#1A237E" stop-opacity="0.02" offset="100%"></stop>
        </linearGradient>
        <linearGradient x1="24.1551264%" y1="24.1550696%" x2="76.173587%" y2="76.1735302%" id="linearGradient-10">
            <stop stop-color="#FFFFFF" stop-opacity="0.1" offset="0%"></stop>
            <stop stop-color="#FFFFFF" stop-opacity="0" offset="100%"></stop>
        </linearGradient>
        <linearGradient x1="41.1722121%" y1="30.9694022%" x2="58.4436815%" y2="47.6614064%" id="linearGradient-11">
            <stop stop-color="#000000" stop-opacity="0.2" offset="0%"></stop>
            <stop stop-color="#D8D8D8" stop-opacity="0" offset="100%"></stop>
        </linearGradient>
        <linearGradient x1="41.1722121%" y1="30.9694022%" x2="63.1545369%" y2="52.1813471%" id="linearGradient-12">
            <stop stop-color="#000000" stop-opacity="0.2" offset="0%"></stop>
            <stop stop-color="#D8D8D8" stop-opacity="0" offset="100%"></stop>
        </linearGradient>
    </defs>
    <g fill="none">
        <mask id="mask-2" fill="white">
            <use xlink:href="#path-1"></use>
        </mask>
        <g mask="url(#mask-2)">
            <path d="M250.579492,115.781385 L209.992745,75.1946386 L181.002212,46.2041051 L128.094488,99.1118287 L157.085022,128.102362 L128.094488,157.092896 L75.1867646,210.000619 L115.773511,250.587366 C122.586287,257.400142 133.60269,257.400142 140.415465,250.587366 L181.002212,210.000619 L209.992745,181.010086 L250.579492,140.423339 C257.392268,133.610564 257.392268,122.594161 250.579492,115.781385 Z"
                  fill="#4285F4" fill-rule="nonzero"></path>
            <path d="M181.002212,46.2041051 L140.415465,5.61735822 C133.60269,-1.19541715 122.586287,-1.19541715 115.773511,5.61735822 L75.1867646,46.2041051 L46.1962311,75.1946386 L5.60948421,115.781385 C-1.20329116,122.594161 -1.20329116,133.610564 5.60948421,140.423339 L46.1962311,181.010086 L75.1867646,210.000619 L128.094488,157.092896 L99.1039547,128.102362 L128.094488,99.1118287 L181.002212,46.2041051 Z"
                  fill="#4FC3F7" fill-rule="nonzero"></path>
            <mask id="mask-4" fill="white">
                <use xlink:href="#path-3"></use>
            </mask>
            <path d="M115.773511,7.0668849 C122.586287,0.254109528 133.60269,0.254109528 140.415465,7.0668849 L250.579492,117.230912 C253.768451,120.419871 255.507883,124.623498 255.652836,128.827126 C255.797788,124.18864 254.203309,119.405202 250.579492,115.781385 L140.415465,5.61735822 C133.60269,-1.19541715 122.586287,-1.19541715 115.773511,5.61735822 L5.60948421,115.781385 C1.98566752,119.405202 0.39118818,124.18864 0.536140848,128.827126 C0.681093515,124.623498 2.42052552,120.419871 5.60948421,117.230912 L115.773511,7.0668849 Z"
                  fill="#FFFFFF" fill-rule="nonzero" opacity="0.2" mask="url(#mask-4)"></path>
            <mask id="mask-6" fill="white">
                <use xlink:href="#path-5"></use>
            </mask>
            <path d="M250.579492,138.973812 L140.415465,249.13784 C133.60269,255.950615 122.586287,255.950615 115.773511,249.13784 L5.60948421,138.973812 C2.42052552,135.784854 0.681093515,131.581226 0.536140848,127.377599 C0.39118818,132.016084 1.98566752,136.799522 5.60948421,140.423339 L115.773511,250.587366 C122.586287,257.400142 133.60269,257.400142 140.415465,250.587366 L250.579492,140.423339 C254.203309,136.799522 255.797788,132.161037 255.652836,127.377599 C255.507883,131.581226 253.768451,135.784854 250.579492,138.973812 Z"
                  fill="#1A237E" fill-rule="nonzero" opacity="0.2" mask="url(#mask-6)"></path>
            <mask id="mask-8" fill="white">
                <use xlink:href="#path-7"></use>
            </mask>
            <path d="M128.094488,157.092896 L75.1867646,210.000619 L115.773511,250.587366 C122.586287,257.400142 133.60269,257.400142 140.415465,250.587366 L181.002212,210.000619 L128.094488,157.092896 Z"
                  fill="url(#linearGradient-9)" fill-rule="nonzero" mask="url(#mask-8)"></path>
            <path d="M250.579492,115.781385 L140.415465,5.61735822 C133.60269,-1.19541715 122.586287,-1.19541715 115.773511,5.61735822 L5.60948421,115.781385 C-1.20329116,122.594161 -1.20329116,133.610564 5.60948421,140.423339 L115.773511,250.587366 C122.586287,257.400142 133.60269,257.400142 140.415465,250.587366 L250.579492,140.423339 C257.392268,133.610564 257.392268,122.594161 250.579492,115.781385 Z M128.094488,157.092896 L99.1039547,128.102362 L128.094488,99.1118287 L157.085022,128.102362 L128.094488,157.092896 Z"
                  fill="url(#linearGradient-10)" fill-rule="nonzero" mask="url(#mask-8)"></path>
            <rect mask="url(#mask-8)" x="-11.0600725" y="-11.0521985" width="278.309121" height="278.309121"></rect>
            <polygon fill-opacity="0.8" fill="url(#linearGradient-11)" fill-rule="nonzero" mask="url(#mask-8)"
                     points="128.581969 157.330709 150.838149 179.554685 95.9765726 230.529965 75.6850394 210.237441"></polygon>
            <polygon fill-opacity="0.8" fill="url(#linearGradient-12)" fill-rule="nonzero" mask="url(#mask-8)"
                     points="180.991418 46.4645669 203.247598 68.6885429 148.386021 119.663824 128.094488 99.3712997"></polygon>
        </g>
    </g>
</svg>

<svg xmlns="http://www.w3.org/2000/svg" xmlns:xlink="http://www.w3.org/1999/xlink" width="256" height="256" preserveAspectRatio="xMidYMid"><defs><linearGradient id="h" x1="24.691%" x2="74.734%" y1="26.425%" y2="80.127%"><stop offset="0%" stop-color="#1A237E" stop-opacity=".2"/><stop offset="100%" stop-color="#1A237E" stop-opacity=".02"/></linearGradient><linearGradient id="j" x1="24.155%" x2="76.174%" y1="24.155%" y2="76.174%"><stop offset="0%" stop-color="#FFF" stop-opacity=".1"/><stop offset="100%" stop-color="#FFF" stop-opacity="0"/></linearGradient><linearGradient id="k" x1="41.172%" x2="58.444%" y1="30.969%" y2="47.661%"><stop offset="0%" stop-opacity=".2"/><stop offset="100%" stop-color="#D8D8D8" stop-opacity="0"/></linearGradient><linearGradient id="l" x1="41.172%" x2="63.155%" y1="30.969%" y2="52.181%"><stop offset="0%" stop-opacity=".2"/><stop offset="100%" stop-color="#D8D8D8" stop-opacity="0"/></linearGradient><path id="a" d="M250.874 115.64 140.36 5.126c-6.834-6.835-17.886-6.835-24.72 0L5.126 115.64c-6.835 6.834-6.835 17.886 0 24.72L115.64 250.874c6.834 6.835 17.886 6.835 24.72 0L250.874 140.36c6.835-6.834 6.835-17.886 0-24.72M128 157.083 98.917 128 128 98.917 157.083 128z"/><path id="c" d="M250.58 115.781 140.414 5.617c-6.812-6.812-17.829-6.812-24.641 0L5.609 115.781c-6.812 6.813-6.812 17.83 0 24.642l110.165 110.164c6.812 6.813 17.829 6.813 24.641 0L250.58 140.423c6.813-6.812 6.813-17.829 0-24.642m-122.486 41.312-28.99-28.99 28.99-28.991 28.991 28.99z"/><path id="e" d="M250.58 115.781 140.414 5.617c-6.812-6.812-17.829-6.812-24.641 0L5.609 115.781c-6.812 6.813-6.812 17.83 0 24.642l110.165 110.164c6.812 6.813 17.829 6.813 24.641 0L250.58 140.423c6.813-6.812 6.813-17.829 0-24.642m-122.486 41.312-28.99-28.99 28.99-28.991 28.991 28.99z"/><path id="g" d="M250.58 115.781 140.414 5.617c-6.812-6.812-17.829-6.812-24.641 0L5.609 115.781c-6.812 6.813-6.812 17.83 0 24.642l110.165 110.164c6.812 6.813 17.829 6.813 24.641 0L250.58 140.423c6.813-6.812 6.813-17.829 0-24.642m-122.486 41.312-28.99-28.99 28.99-28.991 28.991 28.99z"/></defs><g fill="none"><mask id="b" fill="#fff"><use xlink:href="#a"/></mask><g mask="url(#b)"><path fill="#4285F4" d="m250.58 115.781-40.587-40.586-28.99-28.99-52.909 52.907 28.991 28.99-28.99 28.99-52.908 52.909 40.587 40.586c6.812 6.813 17.829 6.813 24.641 0l40.587-40.586 28.99-28.99 40.587-40.588c6.813-6.812 6.813-17.829 0-24.642"/><path fill="#4FC3F7" d="M181.002 46.204 140.415 5.617c-6.812-6.812-17.829-6.812-24.641 0L75.187 46.204l-28.99 28.99-40.588 40.587c-6.812 6.813-6.812 17.83 0 24.642l40.587 40.587L75.186 210l52.908-52.907-28.99-28.99 28.99-28.991z"/><mask id="d" fill="#fff"><use xlink:href="#c"/></mask><path fill="#FFF" d="M115.774 7.067c6.812-6.813 17.829-6.813 24.641 0L250.58 117.23c3.19 3.189 4.929 7.392 5.074 11.596.145-4.638-1.45-9.422-5.074-13.046L140.415 5.617c-6.812-6.812-17.829-6.812-24.641 0L5.609 115.781C1.986 119.405.391 124.19.536 128.827c.145-4.204 1.885-8.407 5.073-11.596z" mask="url(#d)" opacity=".2"/><mask id="f" fill="#fff"><use xlink:href="#e"/></mask><path fill="#1A237E" d="M250.58 138.974 140.414 249.138c-6.812 6.813-17.829 6.813-24.641 0L5.609 138.974c-3.188-3.19-4.928-7.393-5.073-11.596-.145 4.638 1.45 9.422 5.073 13.045l110.165 110.164c6.812 6.813 17.829 6.813 24.641 0L250.58 140.423c3.624-3.623 5.219-8.262 5.074-13.045-.145 4.203-1.885 8.407-5.074 11.596" mask="url(#f)" opacity=".2"/><mask id="i" fill="#fff"><use xlink:href="#g"/></mask><path fill="url(#h)" d="M128.094 157.093 75.187 210l40.587 40.586c6.812 6.813 17.829 6.813 24.641 0l40.587-40.586z" mask="url(#i)"/><path fill="url(#j)" d="M250.58 115.781 140.414 5.617c-6.812-6.812-17.829-6.812-24.641 0L5.609 115.781c-6.812 6.813-6.812 17.83 0 24.642l110.165 110.164c6.812 6.813 17.829 6.813 24.641 0L250.58 140.423c6.813-6.812 6.813-17.829 0-24.642m-122.486 41.312-28.99-28.99 28.99-28.991 28.991 28.99z" mask="url(#i)"/><path d="M-11.06-11.052h278.309v278.309H-11.06z" mask="url(#i)"/><path fill="url(#k)" fill-opacity=".8" d="m128.582 157.33 22.256 22.225-54.861 50.975-20.292-20.293z" mask="url(#i)"/><path fill="url(#l)" fill-opacity=".8" d="m180.991 46.465 22.257 22.224-54.862 50.975-20.292-20.293z" mask="url(#i)"/></g></g></svg>
